!! 00010] TT[TB
!! Eigene Aufnahme
!!!OTL: Qing an I ask (for) the peace
!!!ARE: Neimeng
!! Ethnic Group: Menggu
!! MM, S. 308
!!!SCT: C0543
!!!YEM: Copyright 1995, estate of Helmut Schaffrath.
**kern
*ICvox
*Ivox
*M2/4
*k[]
*C:
{4a
4dd
=1
4.g
8e
=2
4a
4dd
=3
4g
4a}
=4
{8dd
4cc
8dd
=5
4gg
8ee
8cc
=6
[2dd
=7
2dd]}
=8
{8dd
4cc
8dd
=9
4ee
4aa
=10
8a
4a
8dd
=11
8a
8g
4e}
=12
{8aa
8c
8c
8d
=13
8e
8g
4e
=14
2d
=15
2d}
==
!!!AGN: NN
!! Saenger: Chao Lun Batou, der das Buch nur zum Nachschlagen
!!    benutzte und ansonsten auswendig sang. Da er aus dem Osten der
!!    Neimeng kommt, kennt er nicht so viele Lieder des Westens.
!!    Alle Lieder wurden mit erkaelteter, halber Stimme in meinem
!!    Zimmer gesungen. FOTO VORHANDEN (DIAS)  31.3.87  Leicht variiert.
!!!ONB: ESAC (Essen Associative Code) Database: CHINA
!!!AMT: simple duple
!!!AIN: vox
!!!EED: Helmut Schaffrath
!!!EEV: 1.0
*-
!!!ONB: Tied note syntax fixed by Craig Sapp, 2004/05/03/
